!!!OTL: 1419. Soldatenliebe.
!!!ARE: Europa, Mitteleuropa, Deutschland, Hessen, Frankfurt a.M.; Giessen
!!!SCT: E1419
!!!TXL: @@DE
!!!YEM: Copyright 1995, estate of Helmut Schaffrath.
**kern	**text
*ICvox	*
*M4/4	*
*met(c)	*
*k[f#]	*
*G:	*
=1	=1
!LO:TX:a:t=Mäßig.	!
!LO:TX:a:t=Vielfach mündlich aus der Gegend von Frankf. a. M. 1840, Gießen 1841.	!
{4g	'Schätʒchen,
4g	.
4f#	ſag,
4g	was
=2	=2
8aL	fehlt
8gJ	.
8f#L	denn
8eJ	.
2d}	dir,
=3	=3
{4b	weil
4b	.
4a	du
4b/	nicht
=4	=4
4cc	redſt
4b	mit
4a;}	mir?
{8g	Gelt,
8g	du
=5	=5
4a	haſt
4a	ein'
4a	An-
8gL	-dern
8f#J	.
=6	=6
4g	an
4dd	der
4b	Sei-
4g}	-ten,
=7	=7
{4a	der
4a	dir
4a	thut
8gL	die
8f#J	.
=8	=8
4g	Ʒeit
4dd	ver-
4b	-trei-
4g}	-ben,
=9	=9
{(4cc	der
4ee)	.
4.dd	dir
8b/	viel
=10	=10
8bL	lie-
8aJ	.
4a	-ber
(<8gL	iſt,
8b/J	.
4dd)}	.
=11	=11
{(4cc	der
4ee)	.
4.dd	dir
8b	viel
=12	=12
(8bL	lie-
8aJ)	.
4a	-ber
4g	iſt?'
4r}	.
==	==
!!!AGN: Staende -, Soldaten - Lied, Liebe
!!!ONB: ESAC (Essen Associative Code) Database: ERK3
!!!AMT: simple quadruple
!!!AIN: vox
!!!EED: Helmut Schaffrath
!!!EEV: 1.0
!!!RDF**kern: <= below
!!!GTL: Staendelieder (Berufslieder). 1. Soldaten- und Kriegslieder. Soldatenlieder seit dem 30jaehr. Kriege.
!!!URL-scan: https://rosdok.uni-rostock.de/mcrviewer/recordIdentifier/rosdok_ppn745177999/iview2/phys_0284.iview2?x=-128.77276441889308&y=159.2818796071224&scale=0.5870222003877485&rotation=0&layout=singlePageLayout
!!!ENC: Anna Maria Matuszewska
!!!EEV: 2024/12/31
*-	*-
